images/budget.svg

<svg width="56" height="56" viewBox="0 0 56 56" fill="none" xmlns="http://www.w3.org/2000/svg">
<path d="M8.75268 29.7429H24.5027C24.9865 29.7429 25.3777 29.3518 25.3777 28.8679V25.3679C25.3777 24.884 24.9865 24.4929 24.5027 24.4929H8.75268C8.26881 24.4929 7.87769 24.884 7.87769 25.3679V28.8679C7.87769 29.3518 8.26881 29.7429 8.75268 29.7429ZM9.62768 26.2429H23.6277V27.9929H9.62768V26.2429Z" fill="white"/>
<path d="M22.7527 31.4929C21.3054 31.4929 20.1277 32.6707 20.1277 34.1179C20.1277 35.5652 21.3054 36.7429 22.7527 36.7429C24.1999 36.7429 25.3777 35.5652 25.3777 34.1179C25.3777 32.6707 24.1999 31.4929 22.7527 31.4929ZM22.7527 34.9929C22.2697 34.9929 21.8777 34.6009 21.8777 34.1179C21.8777 33.6349 22.2697 33.2429 22.7527 33.2429C23.2357 33.2429 23.6277 33.6349 23.6277 34.1179C23.6277 34.6009 23.2357 34.9929 22.7527 34.9929Z" fill="white"/>
<path d="M16.6276 31.4929C15.1803 31.4929 14.0026 32.6707 14.0026 34.1179C14.0026 35.5652 15.1803 36.7429 16.6276 36.7429C18.0748 36.7429 19.2526 35.5652 19.2526 34.1179C19.2526 32.6707 18.0748 31.4929 16.6276 31.4929ZM16.6276 34.9929C16.1446 34.9929 15.7526 34.6009 15.7526 34.1179C15.7526 33.6349 16.1446 33.2429 16.6276 33.2429C17.1106 33.2429 17.5026 33.6349 17.5026 34.1179C17.5026 34.6009 17.1106 34.9929 16.6276 34.9929Z" fill="white"/>
<path d="M10.5027 36.7429C11.9499 36.7429 13.1277 35.5652 13.1277 34.1179C13.1277 32.6707 11.9499 31.4929 10.5027 31.4929C9.05543 31.4929 7.87769 32.6707 7.87769 34.1179C7.87769 35.5652 9.05543 36.7429 10.5027 36.7429ZM10.5027 33.2429C10.9857 33.2429 11.3777 33.6349 11.3777 34.1179C11.3777 34.6009 10.9857 34.9929 10.5027 34.9929C10.0197 34.9929 9.62768 34.6009 9.62768 34.1179C9.62768 33.6349 10.0197 33.2429 10.5027 33.2429Z" fill="white"/>
<path d="M22.7527 37.6179C21.3054 37.6179 20.1277 38.7957 20.1277 40.2429C20.1277 41.6902 21.3054 42.8679 22.7527 42.8679C24.1999 42.8679 25.3777 41.6902 25.3777 40.2429C25.3777 38.7957 24.1999 37.6179 22.7527 37.6179ZM22.7527 41.1179C22.2697 41.1179 21.8777 40.7259 21.8777 40.2429C21.8777 39.7599 22.2697 39.3679 22.7527 39.3679C23.2357 39.3679 23.6277 39.7599 23.6277 40.2429C23.6277 40.7259 23.2357 41.1179 22.7527 41.1179Z" fill="white"/>
<path d="M16.6276 37.6179C15.1803 37.6179 14.0026 38.7957 14.0026 40.2429C14.0026 41.6902 15.1803 42.8679 16.6276 42.8679C18.0748 42.8679 19.2526 41.6902 19.2526 40.2429C19.2526 38.7957 18.0748 37.6179 16.6276 37.6179ZM16.6276 41.1179C16.1446 41.1179 15.7526 40.7259 15.7526 40.2429C15.7526 39.7599 16.1446 39.3679 16.6276 39.3679C17.1106 39.3679 17.5026 39.7599 17.5026 40.2429C17.5026 40.7259 17.1106 41.1179 16.6276 41.1179Z" fill="white"/>
<path d="M10.5027 42.8679C11.9499 42.8679 13.1277 41.6902 13.1277 40.2429C13.1277 38.7957 11.9499 37.6179 10.5027 37.6179C9.05543 37.6179 7.87769 38.7957 7.87769 40.2429C7.87769 41.6902 9.05543 42.8679 10.5027 42.8679ZM10.5027 39.3679C10.9857 39.3679 11.3777 39.7599 11.3777 40.2429C11.3777 40.7259 10.9857 41.1179 10.5027 41.1179C10.0197 41.1179 9.62768 40.7259 9.62768 40.2429C9.62768 39.7599 10.0197 39.3679 10.5027 39.3679Z" fill="white"/>
<path d="M22.7527 43.7429C21.3054 43.7429 20.1277 44.9207 20.1277 46.3679C20.1277 47.8152 21.3054 48.993 22.7527 48.993C24.1999 48.993 25.3777 47.8152 25.3777 46.3679C25.3777 44.9207 24.1999 43.7429 22.7527 43.7429ZM22.7527 47.2429C22.2697 47.2429 21.8777 46.8509 21.8777 46.3679C21.8777 45.8849 22.2697 45.4929 22.7527 45.4929C23.2357 45.4929 23.6277 45.8849 23.6277 46.3679C23.6277 46.8509 23.2357 47.2429 22.7527 47.2429Z" fill="white"/>
<path d="M16.6276 43.7429C15.1803 43.7429 14.0026 44.9207 14.0026 46.3679C14.0026 47.8152 15.1803 48.993 16.6276 48.993C18.0748 48.993 19.2526 47.8152 19.2526 46.3679C19.2526 44.9207 18.0748 43.7429 16.6276 43.7429ZM16.6276 47.2429C16.1446 47.2429 15.7526 46.8509 15.7526 46.3679C15.7526 45.8849 16.1446 45.4929 16.6276 45.4929C17.1106 45.4929 17.5026 45.8849 17.5026 46.3679C17.5026 46.8509 17.1106 47.2429 16.6276 47.2429Z" fill="white"/>
<path d="M10.5027 48.993C11.9499 48.993 13.1277 47.8152 13.1277 46.3679C13.1277 44.9207 11.9499 43.7429 10.5027 43.7429C9.05543 43.7429 7.87769 44.9207 7.87769 46.3679C7.87769 47.8152 9.05543 48.993 10.5027 48.993ZM10.5027 45.4929C10.9857 45.4929 11.3777 45.8849 11.3777 46.3679C11.3777 46.8509 10.9857 47.2429 10.5027 47.2429C10.0197 47.2429 9.62768 46.8509 9.62768 46.3679C9.62768 45.8849 10.0197 45.4929 10.5027 45.4929Z" fill="white"/>
<path d="M36.7395 13.1356H36.6739C36.3991 10.984 35.1225 9.06511 33.2395 7.96873V7.60036C33.2395 7.55573 33.2211 7.51636 33.2141 7.47349C33.2045 7.40961 33.1993 7.34574 33.1765 7.28536C33.1555 7.23024 33.1205 7.18561 33.0881 7.13573C33.0593 7.09023 33.0356 7.04386 32.998 7.00448C32.9499 6.95286 32.8913 6.91786 32.8326 6.87936C32.8003 6.85836 32.7766 6.82686 32.7408 6.81023C32.732 6.80586 32.7224 6.80323 32.7145 6.79886C32.7075 6.79623 32.7014 6.79361 32.6944 6.79099C30.8394 5.92211 28.6501 5.92123 26.7838 6.78836C26.7794 6.79011 26.775 6.79098 26.7706 6.79361C26.761 6.79798 26.7523 6.80061 26.7426 6.80498C26.7024 6.82336 26.6761 6.85836 26.6403 6.88198C26.5851 6.91873 26.5291 6.95111 26.4836 6.99836C26.446 7.03948 26.4224 7.08761 26.3926 7.13311C26.3611 7.18211 26.3261 7.22586 26.3043 7.28098C26.2815 7.34048 26.2771 7.40436 26.2666 7.46823C26.2596 7.51198 26.2413 7.55136 26.2413 7.59598V7.96523C24.3548 9.06161 23.0755 10.9814 22.7999 13.1347H22.7395C22.2556 13.1347 21.8645 13.5259 21.8645 14.0097V16.6347C21.8645 17.1186 22.2556 17.5097 22.7395 17.5097H36.7395C37.2234 17.5097 37.6145 17.1186 37.6145 16.6347V14.0097C37.6145 13.5267 37.2234 13.1356 36.7395 13.1356ZM26.2413 10.0976V10.5089C26.2413 10.9927 26.6324 11.3839 27.1163 11.3839C27.6001 11.3839 27.9913 10.9927 27.9913 10.5089V8.18486C29.1209 7.78761 30.3651 7.78936 31.4895 8.18661V10.5089C31.4895 10.9927 31.8806 11.3839 32.3645 11.3839C32.8484 11.3839 33.2395 10.9927 33.2395 10.5089V10.1029C34.1154 10.893 34.7043 11.9649 34.9046 13.1356H24.5691C24.7713 11.9622 25.3619 10.8877 26.2413 10.0976ZM35.8645 15.7606H23.6145V14.8856H35.8645V15.7606Z" fill="#7ED95F"/>
<path d="M41.9983 24.5054H44.6233C45.1072 24.5054 45.4983 24.1142 45.4983 23.6304C45.4983 23.1465 45.1072 22.7554 44.6233 22.7554H41.9983C41.5144 22.7554 41.1233 23.1465 41.1233 23.6304C41.1233 24.1142 41.5144 24.5054 41.9983 24.5054Z" fill="white"/>
<path d="M44.6232 27.1304H41.1223C40.6384 27.1304 40.2473 27.5215 40.2473 28.0054C40.2473 28.4892 40.6384 28.8804 41.1223 28.8804H44.6232C45.1071 28.8804 45.4982 28.4892 45.4982 28.0054C45.4982 27.5215 45.1071 27.1304 44.6232 27.1304Z" fill="white"/>
<path d="M44.6233 31.5054H41.9983C41.5144 31.5054 41.1233 31.8965 41.1233 32.3804C41.1233 32.8642 41.5144 33.2554 41.9983 33.2554H44.6233C45.1072 33.2554 45.4983 32.8642 45.4983 32.3804C45.4983 31.8965 45.1072 31.5054 44.6233 31.5054Z" fill="white"/>
<path d="M44.6233 35.8804H42.8742C42.3903 35.8804 41.9991 36.2715 41.9991 36.7554C41.9991 37.2392 42.3903 37.6304 42.8742 37.6304H44.6233C45.1072 37.6304 45.4983 37.2392 45.4983 36.7554C45.4983 36.2715 45.1072 35.8804 44.6233 35.8804Z" fill="white"/>
<path d="M44.6233 40.2551H41.9983C41.5144 40.2551 41.1233 40.6463 41.1233 41.1301C41.1233 41.614 41.5144 42.0051 41.9983 42.0051H44.6233C45.1072 42.0051 45.4983 41.614 45.4983 41.1301C45.4983 40.6463 45.1072 40.2551 44.6233 40.2551Z" fill="white"/>
<path d="M44.6232 44.6301H41.1223C40.6384 44.6301 40.2473 45.0213 40.2473 45.5051C40.2473 45.989 40.6384 46.3801 41.1223 46.3801H44.6232C45.1071 46.3801 45.4982 45.989 45.4982 45.5051C45.4982 45.0213 45.1071 44.6301 44.6232 44.6301Z" fill="white"/>
<path d="M51.6206 7.00183C51.6197 6.89071 51.5978 6.78046 51.5549 6.67633C51.5103 6.56871 51.4464 6.47158 51.3651 6.39108L45.2427 0.26433C45.1622 0.182955 45.0651 0.11908 44.9574 0.0744551C44.8507 0.0298301 44.7369 0.00708008 44.6232 0.00708008H16.6276C16.1437 0.00708008 15.7526 0.398205 15.7526 0.88208V20.9931H7.00256C5.55531 20.9931 4.37756 22.1708 4.37756 23.6181V27.1181V49.8681V53.3681C4.37756 54.8154 5.55531 55.9931 7.00256 55.9931H26.2526C27.6998 55.9931 28.8776 54.8154 28.8776 53.3681V52.4896H50.7473C51.2312 52.4896 51.6223 52.0985 51.6223 51.6146V7.01233C51.6223 7.01233 51.6223 7.01233 51.6223 7.01146V7.01058C51.6223 7.00708 51.6206 7.00446 51.6206 7.00183ZM45.4982 2.99521L48.6359 6.13558H45.4982V2.99521ZM6.12756 23.6181C6.12756 23.1351 6.51956 22.7431 7.00256 22.7431H26.2526C26.7356 22.7431 27.1276 23.1351 27.1276 23.6181V27.1181V49.8681C27.1276 50.3511 26.7356 50.7431 26.2526 50.7431H7.00256C6.51956 50.7431 6.12756 50.3511 6.12756 49.8681V27.1181V23.6181ZM26.2526 54.2431H7.00256C6.51956 54.2431 6.12756 53.8511 6.12756 53.3681V52.3312C6.40231 52.4292 6.69369 52.4931 7.00256 52.4931H26.2526C26.5614 52.4931 26.8528 52.4301 27.1276 52.3312V53.3681C27.1276 53.8511 26.7356 54.2431 26.2526 54.2431ZM28.8776 49.8681V46.3804H36.7456C37.2294 46.3804 37.6206 45.9892 37.6206 45.5054C37.6206 45.0215 37.2294 44.6304 36.7456 44.6304H28.8776V42.0054H36.7456C37.2294 42.0054 37.6206 41.6142 37.6206 41.1304C37.6206 40.6465 37.2294 40.2554 36.7456 40.2554H28.8776V37.6303H36.7456C37.2294 37.6303 37.6206 37.2392 37.6206 36.7553C37.6206 36.2715 37.2294 35.8803 36.7456 35.8803H28.8776V33.2553H36.7456C37.2294 33.2553 37.6206 32.8642 37.6206 32.3803C37.6206 31.8965 37.2294 31.5053 36.7456 31.5053H28.8776V28.8803H36.7456C37.2294 28.8803 37.6206 28.4892 37.6206 28.0053C37.6206 27.5215 37.2294 27.1303 36.7456 27.1303H28.8776V27.1181V24.5053H36.7456C37.2294 24.5053 37.6206 24.1142 37.6206 23.6303C37.6206 23.1465 37.2294 22.7553 36.7456 22.7553H28.7201C28.3604 21.7325 27.3953 20.9931 26.2526 20.9931H17.5026V1.75708H43.7482V7.01058C43.7482 7.49446 44.1393 7.88558 44.6232 7.88558H49.8723V50.7405H28.8776V49.8681Z" fill="white"/>
</svg>

<svg width="56" height="56" fill="none" xmlns="http://www.w3.org/2000/svg"><path d="M8.753 29.743h15.75a.874.874 0 00.875-.875v-3.5a.874.874 0 00-.875-.875H8.753a.874.874 0 00-.875.875v3.5c0 .484.39.875.875.875zm.875-3.5h14v1.75h-14v-1.75zm13.125 5.25a2.628 2.628 0 00-2.625 2.625 2.628 2.628 0 002.625 2.625 2.628 2.628 0 002.625-2.625 2.628 2.628 0 00-2.625-2.625zm0 3.5a.875.875 0 110-1.75.875.875 0 010 1.75zm-6.125-3.5a2.628 2.628 0 00-2.625 2.625 2.628 2.628 0 002.625 2.625 2.628 2.628 0 002.625-2.625 2.628 2.628 0 00-2.625-2.625zm0 3.5a.875.875 0 110-1.75.875.875 0 010 1.75zm-6.125 1.75a2.628 2.628 0 002.625-2.625 2.628 2.628 0 00-2.625-2.625 2.628 2.628 0 00-2.625 2.625 2.628 2.628 0 002.625 2.625zm0-3.5a.875.875 0 110 1.75.875.875 0 010-1.75zm12.25 4.375a2.628 2.628 0 00-2.625 2.625 2.628 2.628 0 002.625 2.625 2.628 2.628 0 002.625-2.625 2.628 2.628 0 00-2.625-2.625zm0 3.5a.875.875 0 110-1.75.875.875 0 010 1.75zm-6.125-3.5a2.628 2.628 0 00-2.625 2.625 2.628 2.628 0 002.625 2.625 2.628 2.628 0 002.625-2.625 2.628 2.628 0 00-2.625-2.625zm0 3.5a.875.875 0 110-1.75.875.875 0 010 1.75zm-6.125 1.75a2.628 2.628 0 002.625-2.625 2.628 2.628 0 00-2.625-2.625 2.628 2.628 0 00-2.625 2.625 2.628 2.628 0 002.625 2.625zm0-3.5a.875.875 0 110 1.75.875.875 0 010-1.75zm12.25 4.375a2.628 2.628 0 00-2.625 2.625 2.628 2.628 0 002.625 2.625 2.628 2.628 0 002.625-2.625 2.628 2.628 0 00-2.625-2.625zm0 3.5a.875.875 0 110-1.75.875.875 0 010 1.75zm-6.125-3.5a2.628 2.628 0 00-2.625 2.625 2.628 2.628 0 002.625 2.625 2.628 2.628 0 002.625-2.625 2.628 2.628 0 00-2.625-2.625zm0 3.5a.875.875 0 110-1.75.875.875 0 010 1.75zm-6.125 1.75a2.628 2.628 0 002.625-2.625 2.628 2.628 0 00-2.625-2.625 2.628 2.628 0 00-2.625 2.625 2.628 2.628 0 002.625 2.625zm0-3.5a.875.875 0 110 1.75.875.875 0 010-1.75z" fill="#fff"/><path d="M36.74 13.136h-.066a7.031 7.031 0 00-3.434-5.167V7.6c0-.044-.019-.084-.026-.127-.01-.063-.015-.127-.038-.188-.02-.055-.056-.1-.088-.15-.029-.045-.052-.091-.09-.13-.048-.052-.107-.087-.165-.126-.033-.02-.056-.052-.092-.069l-.026-.011-.02-.008a7.033 7.033 0 00-5.911-.003c-.005.002-.009.003-.013.006l-.028.011c-.04.018-.067.053-.103.077-.055.037-.11.07-.156.116-.038.041-.062.09-.091.135-.032.05-.067.093-.089.148-.022.06-.027.123-.037.187-.007.044-.026.083-.026.128v.37a7.034 7.034 0 00-3.441 5.169h-.06a.874.874 0 00-.875.875v2.625c0 .484.39.875.875.875h14a.874.874 0 00.874-.875V14.01a.874.874 0 00-.874-.874zm-10.5-3.038v.41a.874.874 0 101.75 0V8.186a5.283 5.283 0 013.498.002v2.322a.874.874 0 101.75 0v-.406a5.291 5.291 0 011.666 3.033H24.569a5.298 5.298 0 011.672-3.038zm9.623 5.663h-12.25v-.875h12.25v.875z" fill="#7ED95F"/><path d="M41.998 24.505h2.625a.874.874 0 100-1.75h-2.625a.874.874 0 100 1.75zm2.625 2.625h-3.5a.874.874 0 100 1.75h3.5a.874.874 0 100-1.75zm0 4.375h-2.625a.874.874 0 100 1.75h2.625a.874.874 0 100-1.75zm0 4.375h-1.749a.874.874 0 100 1.75h1.75a.874.874 0 100-1.75zm0 4.375h-2.625a.874.874 0 100 1.75h2.625a.874.874 0 100-1.75zm0 4.375h-3.5a.874.874 0 100 1.75h3.5a.874.874 0 100-1.75z" fill="#fff"/><path d="M51.62 7.002a.872.872 0 00-.255-.61L45.243.263a.866.866 0 00-.286-.19.867.867 0 00-.334-.067H16.628a.874.874 0 00-.875.875v20.111h-8.75a2.628 2.628 0 00-2.625 2.625v29.75a2.628 2.628 0 002.625 2.625h19.25a2.628 2.628 0 002.625-2.625v-.878h21.87a.874.874 0 00.874-.875V7.01L51.621 7zm-6.122-4.007l3.138 3.14h-3.138v-3.14zM6.128 23.618c0-.483.392-.875.875-.875h19.25c.483 0 .875.392.875.875v26.25a.875.875 0 01-.875.875H7.003a.875.875 0 01-.875-.875v-26.25zm20.125 30.625H7.003a.875.875 0 01-.875-.875v-1.037c.274.098.566.162.875.162h19.25c.308 0 .6-.063.875-.162v1.037a.875.875 0 01-.875.875zm2.625-4.375V46.38h7.868a.874.874 0 100-1.75h-7.868v-2.625h7.868a.874.874 0 100-1.75h-7.868V37.63h7.868a.874.874 0 100-1.75h-7.868v-2.625h7.868a.874.874 0 100-1.75h-7.868V28.88h7.868a.874.874 0 100-1.75h-7.868v-2.625h7.868a.874.874 0 100-1.75H28.72a2.622 2.622 0 00-2.467-1.762h-8.75V1.757h26.245v5.254c0 .483.391.875.875.875h5.25V50.74H28.877v-.873z" fill="#fff"/></svg>
